X:1
T:Jack My Pitch Up
C:Colin Cotter
M:C
K:D
(3ABc |:d2 F2 f2 A2|d2 F2 A3 A|BA z G z F z G z|EFGA B2 (3ABc|
d2 F2 f2 A2|d2 F2 A3 A|BA z G z F z G|[1 EF (3GFE D2 (3ABc :|[2 EF (3GFE D2 A2|
|:^AB z c Bc z d|cd z e de z f|ef z g fgab|z agf e2 (3ABc|
d2 F2 f2 A2|d2 F2 A3 A|BA z G z F z G|EF (3GFE D2 [1 A2 :|[2 (3ABc
